projects/elements/src/icon/icons/category-list.svg

<svg fill="none" height="16" viewBox="0 0 16 16" width="16" xmlns="http://www.w3.org/2000/svg"><path clip-rule="evenodd" d="m0 2.16667c0-.30942.120408-.60617.334735-.82496s.505018-.34171.808125-.34171h13.71424c.3031 0 .5938.12292.8082.34171.2143.21879.3347.51554.3347.82496s-.1204.60616-.3347.82495c-.2144.2188-.5051.34171-.8082.34171h-13.71424c-.303107 0-.593798-.12291-.808125-.34171-.214327-.21879-.334735-.51553-.334735-.82495zm0 5.83333c0-.30942.120408-.60617.334735-.82496s.505018-.34171.808125-.34171h13.71424c.3031 0 .5938.12292.8082.34171.2143.21879.3347.51554.3347.82496s-.1204.60616-.3347.82496c-.2144.21879-.5051.34171-.8082.34171h-13.71424c-.303107 0-.593798-.12292-.808125-.34171-.214327-.2188-.334735-.51554-.334735-.82496zm0 5.8333c0-.3094.120408-.6061.334735-.8249s.505018-.3417.808125-.3417h6.85714c.3031 0 .59379.1229.80812.3417s.33474.5155.33474.8249c0 .3095-.12041.6062-.33474.825s-.50502.3417-.80812.3417h-6.85714c-.303107 0-.593798-.1229-.808125-.3417s-.334735-.5155-.334735-.825z" fill="currentColor" fill-rule="evenodd"/></svg>

<svg xmlns="http://www.w3.org/2000/svg" fill="none" viewBox="0 1 16 14"><path fill="currentColor" fill-rule="evenodd" d="M0 2.167c0-.31.12-.606.335-.825S.84 1 1.143 1h13.714c.303 0 .594.123.808.342.215.218.335.515.335.825s-.12.606-.335.825a1.131 1.131 0 0 1-.808.341H1.143c-.303 0-.594-.123-.808-.341A1.18 1.18 0 0 1 0 2.167zM0 8c0-.31.12-.606.335-.825s.505-.342.808-.342h13.714c.303 0 .594.123.808.342a1.18 1.18 0 0 1 0 1.65 1.131 1.131 0 0 1-.808.342H1.143a1.13 1.13 0 0 1-.808-.342A1.18 1.18 0 0 1 0 8zm0 5.833c0-.31.12-.606.335-.825s.505-.341.808-.341H8c.303 0 .594.123.808.341a1.18 1.18 0 0 1 0 1.65A1.136 1.136 0 0 1 8 15H1.143c-.303 0-.594-.123-.808-.342S0 14.143 0 13.833z" clip-rule="evenodd"/></svg>
